X:1
T:Missa in Nativitate - Pitoni
T:#
%%score [ 1 2 3 4 ]
L:1/8
Q:1/4=200
M:none
K:C
V:1 treble nm="Soprano" snm="S"
V:2 treble nm="Alto" snm="A"
V:3 treble-8 nm="Tenor" snm="T"
V:4 bass nm="Bass" snm="B"
V:1
 z4"^Kyrie""^Giuseppe Ottavio Pitoni\n(1657-1743)""^Missa in Nativitate\nDomini nostri Jesu Christi" B8 A4 | %1
w: Ky- ri-|
 (c6 d2) c8 | B8 A8 | B4 c8 B4 | c4 (A8 B4) | c12 B4 | c4 A8 A4 | _B4 c4 d4 G4 | A4 d8 c4 | %9
w: e * e-|le- i-|son, Ky- ri-|e e\- *|le- i-|son, Ky- ri-|e e- le- i-|son, Ky- ri-|
 d4 _B4 A8 | A4 A8 A4 | _B4 c4 d4 G4 | A4 c8 B4 | c4 (A8 B4) | c12 B4 | c4 B8 A4 | (c6 d2) c8 | %17
w: e e- lei-|son, Ky- ri-|e e- le- i-|son, Ky- ri-|e e\- *|le- i-|son, Ky- ri-|e * e-|
 B8 A8 | B16 ||[M:3/1][Q:1/4=400] B16 B8 | A16 ^F8 | G8 B8 B8 | (A16 B8- | %23
w: le- i-|son.|Chri- ste|e- lei-|son, Chri- ste|e\- *|
[M:3/1][Q:1/4=400][Q:1/4=400][Q:1/4=400][Q:1/4=400] B8 B16 | B24 | A16 A8 | (d16 B8 | c12 B4 c8) | %28
w: * lei-|son,|Chri- ste|e\- *||
 c16 B8 | c24 | B16 B8 | A16 ^F8 | G8 B8 B8 | A16 B8- | B8) B16 | B24 || %36
w: le- i-|son,|Chri- ste|e- lei-|son, Chri- ste|e\- *|* lei-|son.|
[Q:1/4=200] z4 B2 A2 B4 A4 | (G6 A2 G8 | ^F4 G8) F4 | G4 G2 G2 G4 G4 | (F4 G4) G8 | %41
w: Ky- ri- e e-|le\- * *|* * i-|son, Ky- ri- e e-|le\- * i-|
[Q:1/4=200][Q:1/4=200][Q:1/4=200][Q:1/4=200] G4 A2 G2 A4 c4 | (_B4 c4) c8 | c4 c2 d2 c6 B2 | %44
w: son, Ky- ri- e e-|le\- * i-|son, Ky- ri- e e-|
 (A4 c8) B4 | c4[Q:1/4=199] B2[Q:1/4=197] A2[Q:1/4=195] B4[Q:1/4=192] A4 | %46
w: le\- * i-|son, Ky- ri- e e-|
[Q:1/4=189] (G6[Q:1/4=186] A2[Q:1/4=183] G8 |[Q:1/4=179] ^F4[Q:1/4=175] G8)[Q:1/4=171] F4 | %48
w: le\- * *|* * i-|
[Q:1/4=170] G16 |] %49
w: son.|
V:2
 z4 G8 ^F4 | (G2 A2 G8) ^F4 | G12 ^F4 | G4 G8 G4 | A4 (F6 E2 F4) | (G2 F2 G2 A2) G8 | G4 F8 F4 | %7
w: Ky- ri-|e * * e-|le- i-|son, Ky- ri-|e e\- * *|le\- * * * i-|son, Ky- ri-|
 F4 F8 E4 | F4 A8 A4 | F4 G4 E8 | F4 F8 F4 | F4 F8 E4 | F4 G8 G4 | A4 (F6 E2 F4) | %14
w: e e- lei-|son, Ky- ri-|e e- lei-|son, Ky- ri-|e e- lei-|son, Ky- ri-|e e\- * *|
 (G2 F2 G2 A2) G8 | G4 G8 ^F4 | (G2 A2 G8) ^F4 | G12 ^F4 | G16 ||[M:3/1] G16 G8 | E8 ^F8 ^D8 | %21
w: le\- * * * i-|son, Ky- ri-|e * * e-|le- i-|son.|Chri- ste|e- le- i-|
 E8 G8 G8 | E16 G8- |[M:3/1] G8 ^F16 | G24 | E16 (F4 G4) | (A16 G4 F4 | G24) | (F12 E4) F8 | G24 | %30
w: son, Chri- ste|e\- *|* lei-|son,|Chri- ste *|e\- * *||le\- * i-|son,|
 G16 G8 | E8 ^F8 ^D8 | E8 G8 G8 | (E16 G8- | G8) ^F16 | ^G24 || z4 =G2 A2 G4 ^F4 | (E8 D4 E4 | %38
w: Chri- ste|e- le- i-|son, Chri- ste|e\- *|* lei-|son.|Ky- ri- e e-|le\- * *|
 D8) D8 | D4 E2 D2 E6 D2 | (C4 E4) D8 | E4 F2 G2 F8 | (F4 A4) G8 | A4 G2 G2 G8 | (F4 G4) G8 | %45
w: * i-|son, Ky- ri- e e-|le\- * i-|son, Ky- ri- e|e\- * lei-|son, Ky- ri- e|e\- * lei-|
 G4 G2 A2 G4 ^F4 | (E8 D4 E4 | D8) D8 | D16 |] %49
w: son, Ky- ri- e e-|le\- * *|* i-|son.|
V:3
 z4 d8 d4 | (e6 d2 e4) c4 | (d2 c2 d6 e2) d4 | d4 e8 d4 | f4 (c8 d4) | e8 d8 | e4 c8 c4 | %7
w: Ky- ri-|e * * e-|le\- * * * i-|son, Ky- ri-|e e\- *|le- i-|son, Ky- ri-|
 d4 c4 _B8 | c4 f8 e4 | d2 _B2 d8 ^c4 | d4 =c8 c4 | d4 c4 _B8 | c4 e8 d4 | f4 (c8 d4) | e8 d8 | %15
w: e e- lei-|son, Ky- ri-|e e- le- i-|son, Ky- ri-|e e- lei-|son, Ky- ri-|e e\- *|le- i-|
 e4 d8 d4 | (e6 d2 e4) c4 | (d2 c2 d6 e2) d4 | d16 ||[M:3/1] e16 e8 | c16 B8 | B8 e8 e8 | %22
w: son, Ky- ri-|e * * e-|le\- * * * i-|son.|Chri- ste|e- lei-|son, Chri- ste|
 (c16 e8) |[M:3/1][K:treble-8] e16 ^d8 | e24 | c16 c8 | (f16 d8 | e12 f4 e8 | c8) d16 | e24 | %30
w: e\- *|le- i-|son,|Chri- ste|e\- *||* lei-|son,|
 e16 e8 | c16 B8 | B8 e8 e8 | (c16 e8) | e16 ^d8 | e24 || z4 d2 d2 d4 d4 | (B6 A2 B4 c4- | %38
w: Chri- ste|e- lei-|son, Chri- ste|e\- *|le- i-|son.|Ky- ri- e e-|le\- * * *|
 c4 B4) A8 | B4 c2 d2 c6 B2 | (A4 c8) B4 | c4 c2 c2 c4 f4 | (d4 f8) e4 | f4 e2 d2 e6 d2 | %44
w: * * i-|son, Ky- ri- e e-|le\- * i-|son, Ky- ri- e e-|le\- * i-|son, Ky- ri- e e-|
 (c4 e4) d8 | e4 d2 d2 d4 d4 | (B6 A2 B4 c4- | c4 B4) A8 | B16 |] %49
w: le\- * i-|son, Ky- ri- e e-|le\- * * *|* * i-|son.|
V:4
 z4 G,,8 D,4 | (C,6 B,,2 C,4) A,,4 | (G,,2 A,,2 B,,2 C,2) D,8 | G,,4 C,8 G,4 | (F,6 E,2 F,4) D,4 | %5
w: Ky- ri-|e * * e-|le\- * * * i-|son, Ky- ri-|e * * e-|
 (C,2 D,2 E,2 F,2) G,8 | C,4 (F,6 E,2) F,4 | _B,4 A,4 G,8 | F,4 D,8 A,4 | _B,4 G,4 A,8 | %10
w: le\- * * * i-|son, Ky\- * ri-|e e- lei-|son, Ky- ri-|e e- lei-|
 D,4 (F,6 E,2) F,4 | _B,4 A,4 G,8 | F,4 C,8 G,4 | (F,6 E,2 F,4) D,4 | (C,2 D,2 E,2 F,2) G,8 | %15
w: son, Ky\- * ri-|e e- lei-|son, Ky- ri-|e * * e-|le\- * * * i-|
 C,4 G,,8 D,4 | (C,6 B,,2 C,4) A,,4 | (G,,2 A,,2 B,,2 C,2) D,8 | G,,16 ||[M:3/1] E,16 G,8 | %20
w: son, Ky- ri-|e * * e-|le\- * * * i-|son.|Chri- ste|
 A,8 ^F,8 B,8 | E,8 E,8 G,8 | A,16 E,8- |[M:3/1] E,8 B,16 | E,24 | A,16 F,8 | (D,16 G,8 | %27
w: e- le- i-|son, Chri- ste|e\- *|* lei-|son,|Chri- ste|e\- *|
 C,12 D,4 E,8 | F,8) D,16 | C,24 | E,16 G,8 | A,8 ^F,8 B,8 | E,8 E,8 G,8 | (A,16 E,8- | E,8) B,16 | %35
w: |* lei-|son,|Chri- ste|e- le- i-|son, Chri- ste|e\- *|* lei-|
 E,24 || z4 G,2 ^F,2 G,4 D,4 | (E,6 ^F,2 G,4 C,4 | D,4 G,,4) D,8 | G,,4 C,2 B,,2 C,4 E,4 | %40
w: son.|Ky- ri- e e-|le\- * * *|* * i-|son, Ky- ri- e e-|
 (F,4 C,4) G,8 | C,4 F,2 E,2 F,4 A,4 | (_B,4 F,4) C8 | F,4 C,2 B,,2 C,4 E,4 | (F,4 C,4) G,8 | %45
w: le\- * i-|son, Ky- ri- e e-|le\- * i-|son, Ky- ri- e e-|le\- * i-|
 C,4 G,2 ^F,2 G,4 D,4 | (E,6 ^F,2 G,4 C,4 | D,4 G,,4) D,8 | G,,16 |] %49
w: son, Ky- ri- e e-|le\- * * *|* * i-|son.|

